packages/ffe-icons/icons/filled/sm/vaccines.svg

<svg xmlns="http://www.w3.org/2000/svg" height="20" viewBox="0 -960 960 960" width="20"><path d="M274.001-298.001h-68.002q-22.392 0-37.195-14.803t-14.803-37.195v-308.002H144q-10.75 0-18.374-7.418-7.625-7.418-7.625-18.384 0-10.966 7.475-18.581 7.474-7.615 18.524-7.615h130.001v-92.002H240q-11.05 0-18.524-7.418-7.475-7.418-7.475-18.384 0-10.966 7.475-18.581 7.474-7.615 18.524-7.615h120q11.05 0 18.524 7.418 7.475 7.418 7.475 18.384 0 10.966-7.475 18.581-7.474 7.615-18.524 7.615h-34.001v92.002H456q11.05 0 18.524 7.418 7.475 7.418 7.475 18.384 0 10.966-7.475 18.581-7.474 7.615-18.524 7.615h-10.001v308.002q0 22.392-14.803 37.195t-37.195 14.803h-68.002v180q0 11.05-7.418 18.525-7.418 7.475-18.384 7.475-10.966 0-18.581-7.475t-7.615-18.525v-180Zm-68.002-51.998h188.002v-88.155H312q-7.138 0-12.492-5.354-5.354-5.354-5.354-12.492 0-7.138 5.354-12.492 5.354-5.354 12.492-5.354h82.001v-60.308H312q-7.138 0-12.492-5.354-5.354-5.354-5.354-12.492 0-7.138 5.354-12.492 5.354-5.354 12.492-5.354h82.001v-88.155H205.999v308.002Zm360 243.998q-22.392 0-37.195-14.803t-14.803-37.195V-408q0-22.834 9.154-45.224 9.154-22.391 23.154-40.622 8.615-9.846 18.153-21.038 9.539-11.193 9.539-27.116v-20.001H564q-10.75 0-18.375-7.418-7.624-7.418-7.624-18.384 0-10.966 7.475-18.581 7.474-7.615 18.524-7.615h192q11.05 0 18.524 7.418 7.475 7.418 7.475 18.384 0 10.966-7.475 18.581-7.474 7.615-18.524 7.615h-10.001V-542q0 16.923 10.154 27.039 10.154 10.115 18.384 20.961 14 17.231 22.731 35.538 8.731 18.308 8.731 38.322v262.141q0 22.392-14.803 37.195t-37.195 14.803H565.999Zm0-271.845h188.002V-408q0-19.308-10-34.462-10-15.154-21.77-29.538-14.727-17.111-21.478-30.517-6.752-13.406-6.752-25.483v-34.001h-68.002V-528q0 9.352-6.5 21.253t-21.115 30.131q-11.769 14.385-22.077 30.847-10.308 16.461-10.308 37.769v30.154Zm0 219.847h188.002v-88.155H565.999v88.155Z"/></svg>

<svg xmlns="http://www.w3.org/2000/svg" height="20" viewBox="0 -960 960 960" width="20"><path d="M274-298h-68q-22.39 0-37.2-14.8Q154-327.61 154-350v-308h-10q-10.75 0-18.37-7.42-7.63-7.42-7.63-18.38 0-10.97 7.48-18.58Q132.95-710 144-710h130v-92h-34q-11.05 0-18.52-7.42-7.48-7.42-7.48-18.38 0-10.97 7.48-18.58Q228.95-854 240-854h120q11.05 0 18.52 7.42 7.48 7.42 7.48 18.38 0 10.97-7.48 18.58Q371.05-802 360-802h-34v92h130q11.05 0 18.52 7.42 7.48 7.42 7.48 18.38 0 10.97-7.48 18.58Q467.05-658 456-658h-10v308q0 22.39-14.8 37.2Q416.39-298 394-298h-68v180q0 11.05-7.42 18.52Q311.16-92 300.2-92q-10.97 0-18.58-7.48Q274-106.95 274-118v-180Zm-68-52h188v-88.15h-82q-7.14 0-12.49-5.36-5.36-5.35-5.36-12.49 0-7.14 5.36-12.49 5.35-5.36 12.49-5.36h82v-60.3h-82q-7.14 0-12.49-5.36-5.36-5.35-5.36-12.49 0-7.14 5.36-12.49 5.35-5.36 12.49-5.36h82V-658H206v308Zm360 244q-22.39 0-37.2-14.8Q514-135.61 514-158v-250q0-22.83 9.15-45.22 9.16-22.4 23.16-40.63 8.61-9.84 18.15-21.03Q574-526.08 574-542v-20h-10q-10.75 0-18.37-7.42-7.63-7.42-7.63-18.38 0-10.97 7.48-18.58Q552.95-614 564-614h192q11.05 0 18.52 7.42 7.48 7.42 7.48 18.38 0 10.97-7.48 18.58Q767.05-562 756-562h-10v20q0 16.92 10.15 27.04 10.16 10.11 18.39 20.96 14 17.23 22.73 35.54t8.73 38.32V-158q0 22.39-14.8 37.2Q776.39-106 754-106H566Zm0-271.85h188V-408q0-19.31-10-34.46-10-15.16-21.77-29.54-14.73-17.11-21.48-30.52Q694-515.92 694-528v-34h-68v34q0 9.35-6.5 21.25t-21.12 30.13q-11.77 14.39-22.07 30.85Q566-429.31 566-408v30.15ZM566-158h188v-88.15H566V-158Z"/></svg>
